;Generated with Cura_SteamEngine 14.09
; Default start code
G28 ; Home extruder
G1 Z15 F600
M107 ; Turn off fan
G90 ; Absolute positioning
M82 ; Extruder in absolute mode
; Activate all used extruder
M104 T0 S210
G92 E0 ; Reset extruder position
; Wait for all used extruders to reach temperature
M109 T0 S210
;Layer count: 13
;LAYER:0
M107
G0 F5400 X3.100 Y22.222 Z0.300
;TYPE:SKIRT
G1 F1800 X159.500 Y22.222 E7.02254
G1 X159.500 Y182.889 E14.23668
G1 X6.500 Y182.890 E21.10656
G1 X6.500 Y190.916 E21.46694
G1 X-4.900 Y190.916 E21.97881
G1 X-4.900 Y179.516 E22.49069
G1 X3.100 Y179.516 E22.84990
G1 X3.100 Y22.222 E29.91258
G0 F5400 X6.900 Y26.022
;TYPE:WALL-INNER
G1 F1800 X155.700 Y26.022 E36.59388
G1 X155.700 Y179.089 E43.46677
G1 X6.900 Y179.090 E50.14807
G1 X6.900 Y26.022 E57.02100
G0 F5400 X10.605 Y29.060
G1 F1800 X10.252 Y29.282 E57.03972
G1 X9.938 Y29.555 E57.05841
G1 X9.584 Y30.005 E57.08411
G1 X9.385 Y30.408 E57.10430
G1 X9.229 Y30.961 E57.13009
G1 X9.207 Y31.170 E57.13953
G1 X9.200 Y31.394 E57.14959
G1 X9.209 Y31.612 E57.15939
G1 X9.273 Y31.991 E57.17665
G1 X9.335 Y32.209 E57.18683
G1 X9.505 Y32.598 E57.20589
G1 X9.706 Y32.924 E57.22308
G1 X9.975 Y33.233 E57.24148
G1 X10.288 Y33.497 E57.25986
G1 X10.648 Y33.713 E57.27872
G1 X11.200 Y33.912 E57.30506
G1 X11.584 Y33.971 E57.32251
G1 X11.798 Y33.981 E57.33213
G1 X12.015 Y33.972 E57.34188
G1 X12.407 Y33.910 E57.35970
G1 X12.807 Y33.779 E57.37860
G1 X13.320 Y33.491 E57.40501
G1 X13.640 Y33.217 E57.42393
G1 X13.905 Y32.908 E57.44221
G1 X14.125 Y32.547 E57.46119
G1 X14.328 Y31.995 E57.48760
G1 X14.391 Y31.593 E57.50587
G1 X14.402 Y31.352 E57.51670
G1 X14.333 Y30.777 E57.54270
G1 X14.203 Y30.379 E57.56150
G1 X14.024 Y30.026 E57.57928
G1 X13.904 Y29.844 E57.58906
G1 X13.782 Y29.690 E57.59789
G1 X13.506 Y29.407 E57.61563
G1 X13.152 Y29.148 E57.63533
G1 X12.616 Y28.899 E57.66187
G1 X12.218 Y28.805 E57.68023
G1 X12.004 Y28.778 E57.68991
G1 X11.786 Y28.770 E57.69971
G1 X11.390 Y28.804 E57.71756
G1 X11.184 Y28.842 E57.72696
G1 X10.814 Y28.963 E57.74444
G1 X10.605 Y29.060 E57.75479
G0 F5400 X12.615 Y28.900
G0 X14.023 Y30.026
G0 X14.326 Y31.994
G0 X76.688 Y97.557
G1 F1800 X76.279 Y97.934 E57.77976
G1 X75.900 Y98.344 E57.80483
G1 X75.555 Y98.782 E57.82987
G1 X75.246 Y99.245 E57.85486
G1 X74.973 Y99.732 E57.87993
G1 X74.739 Y100.238 E57.90496
G1 X74.547 Y100.761 E57.92998
G1 X74.395 Y101.297 E57.95499
G1 X74.287 Y101.845 E57.98007
G1 X74.220 Y102.399 E58.00513
G1 X74.200 Y102.956 E58.03016
G1 X74.220 Y103.513 E58.05518
G1 X74.286 Y104.066 E58.08019
G1 X74.395 Y104.614 E58.10528
G1 X74.547 Y105.150 E58.13029
G1 X74.739 Y105.671 E58.15522
G1 X74.973 Y106.179 E58.18034
G1 X75.245 Y106.666 E58.20538
G1 X75.555 Y107.129 E58.23040
G1 X75.900 Y107.567 E58.25544
G1 X76.279 Y107.977 E58.28051
G1 X76.688 Y108.355 E58.30551
G1 X77.126 Y108.700 E58.33055
G1 X77.589 Y109.010 E58.35557
G1 X78.076 Y109.282 E58.38061
G1 X78.582 Y109.516 E58.40565
G1 X79.106 Y109.708 E58.43070
G1 X79.641 Y109.860 E58.45568
G1 X80.190 Y109.969 E58.48081
G1 X80.743 Y110.035 E58.50581
G1 X81.300 Y110.056 E58.53084
G1 X81.858 Y110.035 E58.55591
G1 X82.410 Y109.968 E58.58088
G1 X82.957 Y109.860 E58.60592
G1 X83.493 Y109.708 E58.63093
G1 X84.017 Y109.516 E58.65599
G1 X84.523 Y109.282 E58.68102
G1 X85.010 Y109.010 E58.70607
G1 X85.473 Y108.700 E58.73109
G1 X85.911 Y108.355 E58.75612
G1 X86.321 Y107.976 E58.78119
G1 X86.699 Y107.567 E58.80620
G1 X87.044 Y107.129 E58.83123
G1 X87.354 Y106.666 E58.85625
G1 X87.626 Y106.179 E58.88130
G1 X87.860 Y105.673 E58.90633
G1 X88.052 Y105.149 E58.93139
G1 X88.204 Y104.614 E58.95636
G1 X88.313 Y104.066 E58.98145
G1 X88.379 Y103.513 E59.00646
G1 X88.400 Y102.956 E59.03148
G1 X88.379 Y102.399 E59.05651
G1 X88.313 Y101.845 E59.08156
G1 X88.204 Y101.297 E59.10665
G1 X88.052 Y100.762 E59.13162
G1 X87.860 Y100.238 E59.15668
G1 X87.626 Y99.732 E59.18171
G1 X87.353 Y99.245 E59.20678
G1 X87.044 Y98.782 E59.23178
G1 X86.699 Y98.344 E59.25681
G1 X86.321 Y97.934 E59.28185
G1 X85.911 Y97.556 E59.30689
G1 X85.474 Y97.211 E59.33189
G1 X85.009 Y96.901 E59.35698
G1 X84.523 Y96.629 E59.38199
G1 X84.017 Y96.395 E59.40702
G1 X83.493 Y96.203 E59.43208
G1 X82.957 Y96.051 E59.45710
G1 X82.411 Y95.943 E59.48209
G1 X81.857 Y95.877 E59.50714
G1 X81.300 Y95.856 E59.53217
G1 X80.743 Y95.877 E59.55719
G1 X80.188 Y95.943 E59.58229
G1 X79.642 Y96.051 E59.60728
G1 X79.106 Y96.203 E59.63230
G1 X78.582 Y96.395 E59.65735
G1 X78.076 Y96.629 E59.68239
G1 X77.590 Y96.901 E59.70739
G1 X77.125 Y97.211 E59.73249
G1 X76.688 Y97.557 E59.75752
G0 F5400 X48.411 Y134.973
G1 F1800 X47.973 Y134.628 E59.78255
G1 X47.510 Y134.318 E59.80757
G1 X47.023 Y134.046 E59.83262
G1 X46.517 Y133.812 E59.85765
G1 X45.993 Y133.620 E59.88270
G1 X45.458 Y133.468 E59.90768
G1 X44.910 Y133.359 E59.93277
G1 X44.357 Y133.293 E59.95777
G1 X43.799 Y133.273 E59.98284
G1 X43.243 Y133.294 E60.00783
G1 X42.689 Y133.359 E60.03287
G1 X42.141 Y133.468 E60.05796
G1 X41.606 Y133.620 E60.08293
G1 X41.082 Y133.812 E60.10799
G1 X40.576 Y134.046 E60.13302
G1 X40.089 Y134.318 E60.15807
G1 X39.626 Y134.628 E60.18309
G1 X39.188 Y134.973 E60.20812
G1 X38.778 Y135.351 E60.23316
G1 X38.400 Y135.761 E60.25820
G1 X38.055 Y136.199 E60.28324
G1 X37.745 Y136.662 E60.30826
G1 X37.473 Y137.149 E60.33330
G1 X37.239 Y137.655 E60.35833
G1 X37.047 Y138.179 E60.38339
G1 X36.895 Y138.715 E60.40841
G1 X36.787 Y139.262 E60.43344
G1 X36.721 Y139.816 E60.45849
G1 X36.700 Y140.372 E60.48348
G1 X36.721 Y140.929 E60.50850
G1 X36.787 Y141.483 E60.53356
G1 X36.895 Y142.030 E60.55859
G1 X37.047 Y142.566 E60.58361
G1 X37.239 Y143.090 E60.60866
G1 X37.473 Y143.596 E60.63370
G1 X37.745 Y144.083 E60.65874
G1 X38.055 Y144.546 E60.68376
G1 X38.400 Y144.984 E60.70880
G1 X38.778 Y145.394 E60.73384
G1 X39.188 Y145.772 E60.75888
G1 X39.626 Y146.117 E60.78391
G1 X40.089 Y146.427 E60.80893
G1 X40.576 Y146.699 E60.83398
G1 X41.082 Y146.933 E60.85901
G1 X41.606 Y147.125 E60.88407
G1 X42.142 Y147.277 E60.90908
G1 X42.689 Y147.385 E60.93412
G1 X43.243 Y147.451 E60.95917
G1 X43.800 Y147.472 E60.98420
G1 X44.357 Y147.451 E61.00922
G1 X44.910 Y147.385 E61.03423
G1 X45.457 Y147.277 E61.05926
G1 X45.993 Y147.125 E61.08428
G1 X46.517 Y146.933 E61.10934
G1 X47.023 Y146.699 E61.13437
G1 X47.510 Y146.427 E61.15942
G1 X47.973 Y146.117 E61.18444
G1 X48.411 Y145.772 E61.20947
G1 X48.821 Y145.394 E61.23451
G1 X49.199 Y144.984 E61.25955
G1 X49.544 Y144.546 E61.28458
G1 X49.854 Y144.083 E61.30960
G1 X50.126 Y143.596 E61.33465
G1 X50.360 Y143.090 E61.35968
G1 X50.552 Y142.566 E61.38474
G1 X50.704 Y142.031 E61.40971
G1 X50.813 Y141.483 E61.43480
G1 X50.879 Y140.929 E61.45985
G1 X50.900 Y140.373 E61.48483
G1 X50.879 Y139.815 E61.50991
G1 X50.813 Y139.262 E61.53491
G1 X50.704 Y138.714 E61.56000
G1 X50.552 Y138.179 E61.58497
G1 X50.360 Y137.655 E61.61003
G1 X50.126 Y137.149 E61.63506
G1 X49.855 Y136.663 E61.66005
G1 X49.543 Y136.198 E61.68519
G1 X49.199 Y135.761 E61.71016
G1 X48.821 Y135.351 E61.73520
G1 X48.411 Y134.973 E61.76024
G0 F5400 X45.457 Y133.469
G0 X42.142 Y133.469
G0 X39.189 Y134.973
G0 X37.240 Y137.656
G0 X36.722 Y140.928
G0 X37.746 Y144.082
G0 X13.791 Y172.016
G1 F1800 X13.507 Y171.723 E61.77857
G1 X13.161 Y171.468 E61.79787
G1 X12.795 Y171.283 E61.81628
G1 X12.409 Y171.156 E61.83452
G1 X12.034 Y171.095 E61.85158
G1 X11.786 Y171.085 E61.86273
G1 X11.391 Y171.120 E61.88053
G1 X11.185 Y171.157 E61.88993
G1 X10.813 Y171.279 E61.90751
G1 X10.605 Y171.376 E61.91782
G1 X10.253 Y171.596 E61.93645
G1 X9.938 Y171.870 E61.95520
G1 X9.590 Y172.313 E61.98049
G1 X9.384 Y172.722 E62.00106
G1 X9.229 Y173.276 E62.02689
G1 X9.207 Y173.485 E62.03632
G1 X9.200 Y173.710 E62.04643
G1 X9.209 Y173.927 E62.05618
G1 X9.273 Y174.306 E62.07344
G1 X9.335 Y174.524 E62.08362
G1 X9.482 Y174.875 E62.10070
G1 X9.706 Y175.238 E62.11986
G1 X9.975 Y175.549 E62.13832
G1 X10.289 Y175.812 E62.15671
G1 X10.648 Y176.028 E62.17552
G1 X11.200 Y176.227 E62.20187
G1 X11.584 Y176.286 E62.21932
G1 X11.798 Y176.296 E62.22893
G1 X12.015 Y176.287 E62.23869
G1 X12.407 Y176.225 E62.25651
G1 X12.795 Y176.098 E62.27484
G1 X13.160 Y175.913 E62.29321
G1 X13.490 Y175.672 E62.31156
G1 X13.769 Y175.392 E62.32931
G1 X13.910 Y175.214 E62.33950
G1 X14.125 Y174.863 E62.35799
G1 X14.328 Y174.309 E62.38448
G1 X14.391 Y173.908 E62.40271
G1 X14.402 Y173.669 E62.41345
G1 X14.333 Y173.094 E62.43945
G1 X14.203 Y172.694 E62.45834
G1 X14.019 Y172.329 E62.47669
G1 X13.791 Y172.016 E62.49408
G0 F5400 X111.896 Y142.030
G1 F1800 X112.047 Y142.566 E62.51908
G1 X112.240 Y143.090 E62.54415
G1 X112.473 Y143.596 E62.56917
G1 X112.746 Y144.083 E62.59424
G1 X113.055 Y144.546 E62.61923
G1 X113.400 Y144.984 E62.64426
G1 X113.780 Y145.394 E62.66937
G1 X114.189 Y145.772 E62.69437
G1 X114.626 Y146.116 E62.71934
G1 X115.089 Y146.427 E62.74439
G1 X115.577 Y146.699 E62.76947
G1 X116.083 Y146.933 E62.79451
G1 X116.606 Y147.125 E62.81952
G1 X117.143 Y147.277 E62.84458
G1 X117.689 Y147.385 E62.86957
G1 X118.243 Y147.451 E62.89462
G1 X118.800 Y147.472 E62.91965
G1 X119.357 Y147.451 E62.94468
G1 X119.911 Y147.385 E62.96973
G1 X120.457 Y147.277 E62.99472
G1 X120.994 Y147.125 E63.01978
G1 X121.517 Y146.933 E63.04479
G1 X122.023 Y146.699 E63.06983
G1 X122.509 Y146.427 E63.09483
G1 X122.974 Y146.117 E63.11993
G1 X123.411 Y145.772 E63.14493
G1 X123.820 Y145.394 E63.16993
G1 X124.200 Y144.984 E63.19503
G1 X124.545 Y144.546 E63.22007
G1 X124.854 Y144.083 E63.24506
G1 X125.127 Y143.596 E63.27013
G1 X125.360 Y143.090 E63.29514
G1 X125.553 Y142.566 E63.32022
G1 X125.704 Y142.030 E63.34522
G1 X125.813 Y141.483 E63.37027
G1 X125.879 Y140.929 E63.39532
G1 X125.900 Y140.373 E63.42030
G1 X125.879 Y139.815 E63.44537
G1 X125.813 Y139.262 E63.47038
G1 X125.704 Y138.715 E63.49542
G1 X125.553 Y138.179 E63.52043
G1 X125.360 Y137.655 E63.54550
G1 X125.127 Y137.149 E63.57051
G1 X124.854 Y136.663 E63.59554
G1 X124.409 Y136.027 E63.63040
G1 X124.200 Y135.761 E63.64558
G1 X123.820 Y135.351 E63.67069
G1 X123.411 Y134.973 E63.69569
G1 X122.974 Y134.628 E63.72069
G1 X122.509 Y134.318 E63.74578
G1 X122.023 Y134.046 E63.77079
G1 X121.517 Y133.812 E63.79582
G1 X120.994 Y133.620 E63.82084
G1 X120.458 Y133.468 E63.84586
G1 X119.911 Y133.359 E63.87090
G1 X119.357 Y133.293 E63.89595
G1 X118.799 Y133.273 E63.92102
G1 X118.243 Y133.294 E63.94600
G1 X117.689 Y133.359 E63.97105
G1 X117.142 Y133.468 E63.99609
G1 X116.606 Y133.620 E64.02111
G1 X116.083 Y133.812 E64.04613
G1 X115.577 Y134.046 E64.07116
G1 X115.089 Y134.318 E64.09624
G1 X114.626 Y134.629 E64.12129
G1 X114.189 Y134.973 E64.14626
G1 X113.780 Y135.351 E64.17127
G1 X113.400 Y135.761 E64.19637
G1 X113.055 Y136.199 E64.22140
G1 X112.746 Y136.662 E64.24639
G1 X112.473 Y137.149 E64.27146
G1 X112.240 Y137.655 E64.29648
G1 X112.047 Y138.179 E64.32155
G1 X111.896 Y138.715 E64.34655
G1 X111.787 Y139.261 E64.37155
G1 X111.720 Y139.816 E64.39665
G1 X111.700 Y140.372 E64.42164
G1 X111.720 Y140.929 E64.44666
G1 X111.787 Y141.484 E64.47176
G1 X111.896 Y142.030 E64.49676
G0 F5400 X113.401 Y144.983
G0 X116.084 Y146.932
G0 X148.938 Y171.871
G1 F1800 X148.591 Y172.313 E64.52199
G1 X148.384 Y172.721 E64.54254
G1 X148.234 Y173.259 E64.56761
G1 X148.206 Y173.487 E64.57793
G1 X148.200 Y173.712 E64.58804
G1 X148.209 Y173.925 E64.59761
G1 X148.269 Y174.299 E64.61462
G1 X148.404 Y174.708 E64.63396
G1 X148.594 Y175.069 E64.65227
G1 X148.834 Y175.398 E64.67056
G1 X149.126 Y175.686 E64.68897
G1 X149.459 Y175.925 E64.70738
G1 X149.825 Y176.106 E64.72571
G1 X150.212 Y176.229 E64.74394
G1 X150.584 Y176.286 E64.76084
G1 X150.798 Y176.296 E64.77046
G1 X151.016 Y176.287 E64.78026
G1 X151.396 Y176.227 E64.79753
G1 X151.615 Y176.164 E64.80776
G1 X151.982 Y176.012 E64.82560
G1 X152.329 Y175.799 E64.84388
G1 X152.640 Y175.533 E64.86226
G1 X152.904 Y175.223 E64.88054
G1 X153.112 Y174.885 E64.89836
G1 X153.208 Y174.677 E64.90865
G1 X153.330 Y174.298 E64.92652
G1 X153.392 Y173.906 E64.94435
G1 X153.401 Y173.667 E64.95508
G1 X153.334 Y173.094 E64.98099
G1 X153.204 Y172.693 E64.99992
G1 X153.018 Y172.328 E65.01831
G1 X152.779 Y172.000 E65.03653
G1 X152.505 Y171.722 E65.05406
G1 X152.161 Y171.468 E65.07326
G1 X151.795 Y171.283 E65.09167
G1 X151.409 Y171.156 E65.10992
G1 X151.035 Y171.095 E65.12693
G1 X150.786 Y171.085 E65.13812
G1 X150.390 Y171.120 E65.15597
G1 X150.185 Y171.157 E65.16533
G1 X149.816 Y171.279 E65.18278
G1 X149.605 Y171.375 E65.19319
G1 X149.252 Y171.597 E65.21191
G1 X148.938 Y171.871 E65.23062
G0 F5400 X150.584 Y33.971
G1 F1800 X150.798 Y33.981 E65.24024
G1 X151.016 Y33.972 E65.25004
G1 X151.396 Y33.912 E65.26731
G1 X151.615 Y33.849 E65.27754
G1 X151.982 Y33.697 E65.29538
G1 X152.330 Y33.483 E65.31372
G1 X152.640 Y33.217 E65.33207
G1 X152.904 Y32.908 E65.35031
G1 X153.119 Y32.558 E65.36876
G1 X153.278 Y32.170 E65.38759
G1 X153.392 Y31.604 E65.41351
G1 X153.401 Y31.351 E65.42488
G1 X153.334 Y30.778 E65.45078
G1 X153.204 Y30.379 E65.46962
G1 X153.019 Y30.014 E65.48800
G1 X152.791 Y29.700 E65.50542
G1 X152.498 Y29.400 E65.52425
G1 X152.011 Y29.067 E65.55074
G1 X151.604 Y28.897 E65.57055
G1 X151.220 Y28.805 E65.58828
G1 X151.005 Y28.778 E65.59800
G1 X150.786 Y28.770 E65.60784
G1 X150.388 Y28.804 E65.62578
G1 X150.184 Y28.843 E65.63511
G1 X149.816 Y28.962 E65.65247
G1 X149.604 Y29.059 E65.66294
G1 X149.251 Y29.283 E65.68171
G1 X148.938 Y29.556 E65.70036
G1 X148.586 Y30.004 E65.72594
G1 X148.384 Y30.407 E65.74618
G1 X148.234 Y30.943 E65.77118
G1 X148.206 Y31.172 E65.78153
G1 X148.200 Y31.396 E65.79160
G1 X148.209 Y31.611 E65.80126
G1 X148.274 Y32.004 E65.81914
G1 X148.408 Y32.403 E65.83804
G1 X148.700 Y32.916 E65.86455
G1 X148.975 Y33.232 E65.88336
G1 X149.288 Y33.496 E65.90174
G1 X149.647 Y33.712 E65.92055
G1 X150.200 Y33.912 E65.94696
G1 X150.584 Y33.971 E65.96440
G0 F5400 X149.820 Y33.349
;TYPE:WALL-OUTER
G1 F1800 X150.299 Y33.523 E65.98729
G1 X150.623 Y33.572 E66.00200
G1 X150.799 Y33.580 E66.00991
G1 X150.977 Y33.573 E66.01791
G1 X151.309 Y33.521 E66.03300
G1 X151.483 Y33.471 E66.04113
G1 X151.799 Y33.340 E66.05649
G1 X152.093 Y33.159 E66.07199
G1 X152.356 Y32.934 E66.08753
G1 X152.579 Y32.672 E66.10298
G1 X152.761 Y32.376 E66.11858
G1 X152.893 Y32.053 E66.13425
G1 X152.993 Y31.557 E66.15697
G1 X153.000 Y31.367 E66.16550
G1 X152.941 Y30.864 E66.18824
G1 X152.833 Y30.532 E66.20392
G1 X152.676 Y30.223 E66.21948
G1 X152.484 Y29.958 E66.23418
G1 X152.240 Y29.708 E66.24986
G1 X151.819 Y29.420 E66.27277
G1 X151.479 Y29.278 E66.28931
G1 X151.149 Y29.199 E66.30455
G1 X150.973 Y29.177 E66.31251
G1 X150.795 Y29.171 E66.32051
G1 X150.283 Y29.231 E66.34365
G1 X149.962 Y29.335 E66.35880
G1 X149.795 Y29.412 E66.36706
G1 X149.491 Y29.604 E66.38321
G1 X149.229 Y29.833 E66.39883
G1 X148.925 Y30.219 E66.42089
G1 X148.759 Y30.552 E66.43760
G1 X148.627 Y31.022 E66.45952
G1 X148.605 Y31.202 E66.46766
G1 X148.600 Y31.393 E66.47624
G1 X148.608 Y31.570 E66.48420
G1 X148.663 Y31.907 E66.49953
G1 X148.775 Y32.239 E66.51526
G1 X149.028 Y32.683 E66.53821
G1 X149.257 Y32.947 E66.55390
G1 X149.521 Y33.170 E66.56942
G1 X149.820 Y33.349 E66.58506
G0 F5400 X149.718 Y33.631
G0 X151.395 Y33.911
G0 X152.903 Y32.907
G0 X153.400 Y31.352
G0 X155.800 Y25.832
G0 X156.100 Y25.622
G1 F1800 X156.100 Y179.489 E73.49387
G1 X6.500 Y179.490 E80.21109
G1 X6.500 Y25.622 E87.11994
G1 X156.100 Y25.622 E93.83716
G0 F5400 X155.800 Y25.832
G0 X148.939 Y29.557
G0 X148.200 Y31.395
G0 X86.239 Y97.997
G0 X86.038 Y98.217
G1 F1800 X85.651 Y97.861 E93.86077
G1 X85.239 Y97.535 E93.88436
G1 X84.800 Y97.242 E93.90806
G1 X84.341 Y96.986 E93.93166
G1 X83.864 Y96.765 E93.95526
G1 X83.370 Y96.584 E93.97889
G1 X82.864 Y96.440 E94.00251
G1 X82.348 Y96.338 E94.02613
G1 X81.826 Y96.276 E94.04973
G1 X81.300 Y96.256 E94.07337
G1 X80.774 Y96.276 E94.09700
G1 X80.251 Y96.338 E94.12065
G1 X79.735 Y96.440 E94.14427
G1 X79.229 Y96.584 E94.16789
G1 X78.735 Y96.765 E94.19151
G1 X78.258 Y96.986 E94.21512
G1 X77.799 Y97.242 E94.23871
G1 X77.360 Y97.535 E94.26241
G1 X76.948 Y97.861 E94.28600
G1 X76.562 Y98.217 E94.30958
G1 X76.205 Y98.604 E94.33322
G1 X75.879 Y99.017 E94.35685
G1 X75.587 Y99.454 E94.38045
G1 X75.330 Y99.914 E94.40411
G1 X75.109 Y100.391 E94.42771
